app/assets/img/ic-transit.svg

<svg height="250" viewBox="0 0 250 250" width="250" xmlns="http://www.w3.org/2000/svg"><g fill="none" fill-rule="evenodd"><path d="m0 0h250v250h-250z"/><path d="m41.6666667 166.666667c0 9.166666 4.0625 17.395833 10.4166666 23.125v18.541666c0 5.729167 4.6875 10.416667 10.4166667 10.416667h10.4166667c5.7291666 0 10.4166666-4.6875 10.4166666-10.416667v-10.416666h83.3333337v10.416666c0 5.729167 4.6875 10.416667 10.416666 10.416667h10.416667c5.729167 0 10.416667-4.6875 10.416667-10.416667v-18.541666c6.354166-5.729167 10.416666-13.958334 10.416666-23.125v-104.166667c0-36.4583333-37.291666-41.6666667-83.333333-41.6666667-46.0416667 0-83.3333333 5.2083334-83.3333333 41.6666667zm36.4583333 10.416666c-8.6458333 0-15.625-6.979166-15.625-15.625 0-8.645833 6.9791667-15.625 15.625-15.625s15.625 6.979167 15.625 15.625c0 8.645834-6.9791667 15.625-15.625 15.625zm93.75 0c-8.645833 0-15.625-6.979166-15.625-15.625 0-8.645833 6.979167-15.625 15.625-15.625s15.625 6.979167 15.625 15.625c0 8.645834-6.979167 15.625-15.625 15.625zm15.625-62.5h-125v-52.083333h125z" fill="#000" fill-rule="nonzero"/></g></svg>

<svg xmlns="http://www.w3.org/2000/svg" width="250" height="250" viewBox="0 0 250 250">
  <g fill="none" fill-rule="evenodd">
    <polygon points="0 0 250 0 250 250 0 250"/>
    <path fill="#000000" fill-rule="nonzero" d="M41.6666667,166.666667 C41.6666667,175.833333 45.7291667,184.0625 52.0833333,189.791667 L52.0833333,208.333333 C52.0833333,214.0625 56.7708333,218.75 62.5,218.75 L72.9166667,218.75 C78.6458333,218.75 83.3333333,214.0625 83.3333333,208.333333 L83.3333333,197.916667 L166.666667,197.916667 L166.666667,208.333333 C166.666667,214.0625 171.354167,218.75 177.083333,218.75 L187.5,218.75 C193.229167,218.75 197.916667,214.0625 197.916667,208.333333 L197.916667,189.791667 C204.270833,184.0625 208.333333,175.833333 208.333333,166.666667 L208.333333,62.5 C208.333333,26.0416667 171.041667,20.8333333 125,20.8333333 C78.9583333,20.8333333 41.6666667,26.0416667 41.6666667,62.5 L41.6666667,166.666667 Z M78.125,177.083333 C69.4791667,177.083333 62.5,170.104167 62.5,161.458333 C62.5,152.8125 69.4791667,145.833333 78.125,145.833333 C86.7708333,145.833333 93.75,152.8125 93.75,161.458333 C93.75,170.104167 86.7708333,177.083333 78.125,177.083333 Z M171.875,177.083333 C163.229167,177.083333 156.25,170.104167 156.25,161.458333 C156.25,152.8125 163.229167,145.833333 171.875,145.833333 C180.520833,145.833333 187.5,152.8125 187.5,161.458333 C187.5,170.104167 180.520833,177.083333 171.875,177.083333 Z M187.5,114.583333 L62.5,114.583333 L62.5,62.5 L187.5,62.5 L187.5,114.583333 Z"/>
  </g>
</svg>
